BPShop/img/footer/visa.svg

<svg width="42" height="13" viewBox="0 0 42 13" fill="none" xmlns="http://www.w3.org/2000/svg">
<path d="M16.4621 0.210693L14.3728 12.4716H17.7144L19.8054 0.210693H16.4621Z" fill="#7F7F7F"/>
<path d="M11.5696 0.224014L8.29679 8.58562L7.94786 7.32309C7.30241 5.80186 5.47006 3.61713 3.31885 2.24029L6.31146 12.4652L9.84725 12.4592L15.1097 0.221436L11.5696 0.224014Z" fill="#7F7F7F"/>
<path d="M6.67966 1.10188C6.48542 0.355015 5.92248 0.132417 5.22375 0.105774H0.0429726L0 0.349859C4.03169 1.32791 6.69943 3.68453 7.8064 6.51814L6.67966 1.10188Z" fill="#7F7F7F"/>
<path d="M26.5757 2.56117C27.6689 2.54398 28.4613 2.7829 29.0767 3.03043L29.3784 3.17224L29.8305 0.514811C29.1687 0.266429 28.1313 0 26.837 0C23.535 0 21.2076 1.66304 21.1895 4.0463C21.168 5.80731 22.8474 6.79053 24.116 7.37753C25.418 7.97915 25.8546 8.36161 25.8486 8.89876C25.8383 9.71954 24.8104 10.096 23.8504 10.096C22.5122 10.096 21.8014 9.9112 20.7039 9.45397L20.2733 9.25801L19.8032 12.0022C20.5853 12.3452 22.0283 12.64 23.5264 12.6554C27.039 12.6554 29.3217 11.0122 29.3457 8.4656C29.3603 7.07243 28.4691 6.00929 26.5379 5.13694C25.369 4.56799 24.654 4.18983 24.6608 3.61571C24.6608 3.10606 25.2676 2.56117 26.5757 2.56117Z" fill="#7F7F7F"/>
<path d="M38.4084 0.224731H35.8266C35.0247 0.224731 34.4282 0.443032 34.0759 1.24232L29.1143 12.4788H32.6234C32.6234 12.4788 33.1958 10.9679 33.3256 10.637C33.7097 10.637 37.1192 10.6421 37.6048 10.6421C37.7045 11.0702 38.0122 12.4788 38.0122 12.4788H41.1122L38.4084 0.224731ZM34.2873 8.12739C34.5623 7.4235 35.6186 4.70076 35.6186 4.70076C35.6005 4.73427 35.891 3.99171 36.0638 3.53018L36.289 4.58731C36.289 4.58731 36.9293 7.5146 37.0633 8.12739H34.2873Z" fill="#7F7F7F"/>
</svg>

<svg width="42" height="13" fill="none" xmlns="http://www.w3.org/2000/svg"><path d="M16.462.21l-2.09 12.262h3.342L19.805.21h-3.343zM11.57.224L8.297 8.586l-.35-1.263C7.303 5.802 5.47 3.617 3.32 2.24l2.99 10.225 3.536-.006L15.11.221l-3.54.003z" fill="#7F7F7F"/><path d="M6.68 1.102C6.485.355 5.922.132 5.224.106H.043L0 .35c4.032.978 6.7 3.335 7.806 6.168L6.68 1.102zm19.896 1.459a6.17 6.17 0 012.5.47l.302.141.453-2.657A8.626 8.626 0 0026.837 0c-3.302 0-5.63 1.663-5.648 4.046-.021 1.761 1.658 2.745 2.927 3.332 1.302.601 1.739.984 1.733 1.52-.01.822-1.039 1.198-1.999 1.198-1.338 0-2.049-.185-3.146-.642l-.43-.196-.47 2.744c.781.343 2.224.638 3.722.653 3.513 0 5.796-1.643 5.82-4.19.014-1.393-.877-2.456-2.808-3.328-1.169-.569-1.884-.947-1.877-1.521 0-.51.607-1.055 1.915-1.055zM38.408.225h-2.581c-.802 0-1.399.218-1.751 1.017L29.114 12.48h3.51s.572-1.511.702-1.842l4.279.005c.1.428.407 1.837.407 1.837h3.1L38.408.225zm-4.12 7.902l1.33-3.426c-.018.033.273-.71.446-1.17l.225 1.056.774 3.54h-2.776z" fill="#7F7F7F"/></svg>
